svgs/light/dumpster-fire.svg

<svg xmlns="http://www.w3.org/2000/svg" viewBox="0 0 640 512"><!-- Font Awesome Pro 6.0.0-alpha2 by @fontawesome - https://fontawesome.com License - https://fontawesome.com/license (Commercial License) --><path d="M16 192H340.492C347.984 181.273 356.002 170.57 364.775 160H304V64H410.875L418.867 103.857L439.822 85.105L449.451 93.68L443.5 64H514.25L534.395 135.297L551.131 120.391L566.75 134.311L543.5 47.125C541.75 38.25 535.25 32 528 32H48C40.75 32 34.25 38.25 32.5 47.125L0.5 167.125C-2 179.75 5.625 192 16 192ZM165.125 64H272V160H145.875L165.125 64ZM61.75 64H132.5L113.25 160H34.625L61.75 64ZM92.469 416L71.281 224H39.062L42.625 256H16C7.199 256 0 263.199 0 272C0 280.799 7.199 288 16 288H46.25L64 448V464C64 472.836 71.164 480 80 480S96 472.836 96 464V448H336.678C327.846 438.174 320.004 427.488 313.355 416H92.469ZM551.25 163.25C536.375 176.5 522.875 190.375 511 204.375C491.5 178.625 467.375 152.375 440 128C369.875 190.75 320 272.25 320 321.625C320 409.125 391.625 480 480 480S640 409.125 640 321.625C640.125 285 603 209.375 551.25 163.25ZM494.25 446.625C489.5 447.125 485 448 480.125 448S470.75 447.125 466 446.625C434.25 440.25 410.25 412.375 410.25 379.25C410.25 365.25 425.625 333.125 454.75 300.875C461.875 308.5 468.375 316.25 474.125 323.875L498.25 355.75L524.125 325.25C524.25 325.25 524.25 325.125 524.375 325.125C540.5 347.25 549.875 371.25 549.875 379.25C549.875 412.375 525.875 440.25 494.25 446.625ZM579.75 400C581.125 393.25 581.875 386.25 581.875 379.25C581.875 355.875 558.375 307.75 525.375 278.375C515.875 286.75 507.375 295.75 499.75 304.625C487.375 288.25 471.875 271.5 454.5 256C409.875 295.875 378.125 347.875 378.125 379.25C378.125 386.25 378.875 393.25 380.375 400C362.875 378.375 351.875 351.25 351.875 321.625C351.875 290 384.375 228.375 440 172.125C456.875 188.75 472.25 206.375 485.375 223.75L509.375 255.625L535.375 225.125C540.25 219.25 545.25 213.75 550.375 208.25C584.75 248.25 607.875 299.75 607.875 321.625C608.125 351.375 597.25 378.375 579.75 400Z"/></svg>

<svg xmlns="http://www.w3.org/2000/svg" viewBox="0 0 640 512"><!--! Font Awesome Pro 6.0.0-alpha3 by @fontawesome - https://fontawesome.com License - https://fontawesome.com/license (Commercial License) --><path d="M16 192l324.6 .0602c7.492-10.73 15.39-21.52 24.17-32.09H304L304 64h106.9l7.992 39.86l20.96-18.75l9.637 8.52L443.5 64h70.75l20.14 71.3l16.72-14.94l15.64 13.95L543.5 47.13C541.8 38.25 535.3 32 528 32h-480C40.75 32 34.25 38.25 32.5 47.13l-32 120C-2 179.8 5.625 192 16 192zM165.1 64H272l.0398 96.07H145.9L165.1 64zM61.75 64H132.5L113.3 160.1L34.63 160L61.75 64zM92.47 416L71.28 224H39.06l3.562 32H16C7.199 256 0 263.2 0 272c0 8.799 7.202 15.1 16 15.1L46.25 288l17.76 160L64.01 464C64.01 472.8 71.17 480 80.01 480S96 472.8 96 464V448l240.8 .0064C327.9 438.2 320 427.5 313.4 416H92.47zM551.2 163.3c-14.88 13.25-28.38 27.12-40.26 41.12c-19.5-25.75-43.64-51.98-71.01-76.36c-70.13 62.75-120 144.2-120 193.6C319.1 409.2 391.6 480 479.1 480s160-70.84 160-158.3C640.1 285 602.1 209.4 551.2 163.3zM494.3 446.6C489.5 447.1 485 448 480.1 448s-9.375-.875-14.13-1.375c-31.75-6.375-55.75-34.25-55.75-67.38c0-14 15.38-46.13 44.5-78.38c7.125 7.625 13.62 15.38 19.38 23l24.12 31.88l26-30.56c.125 0-.125 0 0 0c16.12 22.12 25.62 46.06 25.62 54.06C549.9 412.4 525.9 440.3 494.3 446.6zM579.8 400c1.375-6.75 2.125-13.75 2.125-20.75c0-23.38-23.5-71.5-56.5-100.9c-9.5 8.375-18 17.38-25.62 26.25C487.4 288.3 471.9 271.5 454.5 256c-44.63 39.88-76.38 91.88-76.38 123.3c0 7 .75 14 2.25 20.75c-17.5-21.62-28.5-48.75-28.5-78.38c0-31.62 32.5-93.25 88.13-149.5c16.88 16.62 32.25 34.25 45.38 51.63l24 31.88l26-30.5c4.875-5.875 9.875-11.38 15-16.88c34.38 40 57.5 91.5 57.5 113.4C608.1 351.4 597.3 378.4 579.8 400z"/></svg>
